usr/share/icons/biglinux-icons-material-dark/22/actions/favorite-genres-amarok.svg

<svg xmlns="http://www.w3.org/2000/svg" viewBox="0 0 22 22">
  <defs id="defs3051">
    <style type="text/css" id="current-color-scheme">
      .ColorScheme-Text {
        color:#dedede;
      }
      </style>
  </defs>
 <path 
    style="fill:currentColor;fill-opacity:1;stroke:none" 
    d="M 11 3 C 8.96332 3 7.0914194 3.438765 5.7246094 4.328125 C 4.3578094 5.217485 3.49827 6.5661419 3.5 8.3574219 C 3.509 10.381802 4.8196538 12.992563 6.4023438 15.126953 C 7.1936738 16.194143 8.054885 17.143384 8.859375 17.833984 C 9.663835 18.524584 10.407001 18.96287 10.994141 19 L 11 19 L 11.005859 19 C 11.592999 18.9628 12.336165 18.524584 13.140625 17.833984 C 13.945095 17.143384 14.806306 16.194143 15.597656 15.126953 C 17.180356 12.992563 18.49032 10.381802 18.5 8.3574219 C 18.501 6.5661419 17.642181 5.217485 16.275391 4.328125 C 14.908591 3.438765 13.03668 3 11 3 z M 11 5.6660156 L 12.25 8.3027344 L 15.072266 8.7324219 L 13.015625 10.773438 L 13.482422 13.666016 L 10.960938 12.291016 L 8.4257812 13.650391 L 8.9257812 10.759766 L 6.890625 8.7050781 L 9.7226562 8.2910156 L 11 5.6660156 z "
    class="ColorScheme-Text"
    />  
</svg>

<svg xmlns="http://www.w3.org/2000/svg" viewBox="0 0 22 22">
<defs id="defs3051">
<style id="current-color-scheme" type="text/css">
.ColorScheme-Text{color:#dedede}
</style>
</defs>
<path d="M11 3c-2.037 0-3.909.439-5.275 1.328-1.367.89-2.227 2.238-2.225 4.03.009 2.024 1.32 4.635 2.902 6.769.792 1.067 1.653 2.016 2.457 2.707.805.69 1.548 1.129 2.135 1.166h.012c.587-.037 1.33-.475 2.135-1.166.804-.69 1.665-1.64 2.457-2.707 1.582-2.134 2.892-4.745 2.902-6.77.001-1.79-.858-3.14-2.225-4.029C14.91 3.438 13.037 3 11 3m0 2.666 1.25 2.637 2.822.43-2.056 2.04.466 2.893-2.521-1.375-2.535 1.36.5-2.891L6.89 8.705l2.832-.414z" class="ColorScheme-Text" style="fill:currentColor;fill-opacity:1;stroke:none"/>
</svg>
